X: 2158
T: MISS JESSIE SCOTT
Q: "Reel."
R: Reel.
%R: reel
B: James Kerr "Merry Melodies" v.2 p.18 #158
Z: 2016 John Chambers <jc:trillian.mit.edu>
M: C
L: 1/8
K: D
ug |\
fdec d2(A=c) | BGAF GEEg |\
fdec d2(Ac) | dfeg fdd ::\
ug |\
fede fgaf |
gbaf beeg |\
[1 fede fgaf | gbag fdd :|\
[2 fdAd FdDg | (f/g/a) (eg) fdd |]
